X: 717
T: SADDLE THE PONY
M:6/8
L:1/8
B:O'NEILL'S 717
N:"1st setting"  "collected by F. O'Neill"
Z:Transcribed by A. LEE WORMAN
K:A
A/B/ |:cAA eAA|cBc eAA|cAA eAA|dBG Bcd|
cAA eAA|cBc efg|agf gfe|dBG Bcd:|
||(e<a3)f {a}gee|fdd gee|(e<a3)f {a}gfe|dBG Bcd|
(e<a3)f {a}gee|fdd gee|def gfe|dBG Bcd:|


